X: 3
T: The Dashing White Sergeant
R: polka
M: 2/4
L: 1/8
K: Dmaj
F/E/ | DD D/E/F/G/ | AA Af/e/ | dB AF | BE E/G/F/E/ |
DD D/E/F/G/ | AA Af | ed cB |AA/B/ A/G/F/E/ |
DD D/E/F/G/| AA Af/e/| dB AF|BE E/G/F/E/ |
DD D/E/F/G/ | AA Af | ed cB | A2 AE |]
AA/B/ cc/d/ |ee/c/ AA | BB/c/ dd/e/ |f/g/f/d/ BB |
cA dA | eA fA | gf ed | cB AG |
Fd d/c/d/e/ | dA AA | Be e/d/e/f/ | eB Bd |
Ad d/c/d/e/ | fd d/c/d/e/ | f2 a2 | d3 |]


Tune 6319	Setting 18080

